svg/nature/maple_leaf_fill.svg

<?xml version="1.0" encoding="UTF-8"?>
<svg width="24px" height="24px" viewBox="0 0 24 24" version="1.1" xmlns="http://www.w3.org/2000/svg" xmlns:xlink="http://www.w3.org/1999/xlink">
    <title>maple_leaf_fill</title>
    <g id="Icon" stroke="none" stroke-width="1" fill="none" fill-rule="evenodd">
        <g id="Nature" transform="translate(-624.000000, -50.000000)">
            <g id="maple_leaf_fill" transform="translate(624.000000, 50.000000)">
                <path d="M24,0 L24,24 L0,24 L0,0 L24,0 Z M12.5935,23.2578 L12.5819,23.2595 L12.5109,23.295 L12.4919,23.2987 L12.4767,23.295 L12.4057,23.2595 C12.3958,23.2564 12.387,23.259 12.3821,23.2649 L12.378,23.2758 L12.3609,23.7031 L12.3659,23.7235 L12.3769,23.7357 L12.4805,23.8097 L12.4953,23.8136 L12.5071,23.8097 L12.6107,23.7357 L12.6233,23.7197 L12.6267,23.7031 L12.6096,23.2758 C12.6076,23.2657 12.601,23.2593 12.5935,23.2578 Z M12.8584,23.1453 L12.8445,23.1473 L12.6598,23.2397 L12.6499,23.2499 L12.6472,23.2611 L12.6651,23.6906 L12.6699,23.7034 L12.6784,23.7105 L12.8793,23.8032 C12.8914,23.8069 12.9022,23.803 12.9078,23.7952 L12.9118,23.7812 L12.8777,23.1665 C12.8753,23.1546 12.8674,23.147 12.8584,23.1453 Z M12.143,23.1473 C12.1332,23.1424 12.1222,23.1453 12.1156,23.1526 L12.1099,23.1665 L12.0758,23.7812 C12.0751,23.7927 12.0828,23.8019 12.0926,23.8046 L12.1083,23.8032 L12.3092,23.7105 L12.3186,23.7024 L12.3225,23.6906 L12.3404,23.2611 L12.3372,23.2485 L12.3278,23.2397 L12.143,23.1473 Z" id="MingCute" fill-rule="nonzero"></path>
                <path d="M11.5529,3.10557 C11.8344,2.96481 12.1658,2.96481 12.4473,3.10557 C13.1567,3.46026 14.0276,4.28622 14.7138,5.34289 C15.1339,5.98993 15.5116,6.76377 15.7473,7.63179 C16.4696,7.18424 17.2538,6.86133 18.1839,6.55132 C18.456,6.46061 18.7539,6.49112 19.002,6.63509 C19.2501,6.77906 19.4244,7.02262 19.4807,7.30388 C19.7376,8.58854 19.8929,9.86169 19.6724,11.1113 C19.5382,11.8714 19.2704,12.5958 18.8392,13.2952 C19.3372,13.4669 19.9107,13.7385 20.5548,14.1679 C20.9483,14.4303 21.1042,14.9323 20.9286,15.3714 C20.639,16.0952 19.9074,16.875 18.5598,17.5256 C17.3438,18.1126 15.5697,18.6245 12.996,18.9085 C12.9987,18.9386 13.0001,18.9691 13.0001,19 L13.0001,21 C13.0001,21.5523 12.5524,22 12.0001,22 C11.4478,22 11.0001,21.5523 11.0001,21 L11.0001,19 C11.0001,18.9691 11.0015,18.9386 11.0043,18.9085 C8.43047,18.6245 6.65644,18.1126 5.44035,17.5256 C4.0928,16.875 3.36115,16.0952 3.07162,15.3714 C2.896,14.9323 3.05193,14.4303 3.4454,14.1679 C4.08952,13.7385 4.66296,13.4669 5.16102,13.2952 C4.72985,12.5958 4.46195,11.8714 4.32782,11.1113 C4.1073,9.86169 4.26259,8.58854 4.51952,7.30388 C4.57577,7.02262 4.75009,6.77906 4.99817,6.63509 C5.24626,6.49112 5.54422,6.46061 5.81633,6.55132 C6.74637,6.86133 7.53059,7.18424 8.25289,7.63178 C8.48861,6.76377 8.86625,5.98993 9.2864,5.3429 C9.97256,4.28622 10.8435,3.46026 11.5529,3.10557 Z M13.0001,16.895 L13.0001,14 C13.0001,13.4477 12.5524,13 12.0001,13 C11.4478,13 11.0001,13.4477 11.0001,14 L11.0001,16.895 C11.3175,16.9325 11.6505,16.9664 12.0001,16.9964 C12.3496,16.9664 12.6827,16.9325 13.0001,16.895 Z" id="形状" fill="#09244B"></path>
            </g>
        </g>
    </g>
</svg>

<svg xmlns="http://www.w3.org/2000/svg" width="24" height="24"><g fill="none" fill-rule="evenodd"><path d="M24 0v24H0V0h24ZM12.594 23.258l-.012.002-.071.035-.02.004-.014-.004-.071-.036c-.01-.003-.019 0-.024.006l-.004.01-.017.428.005.02.01.013.104.074.015.004.012-.004.104-.074.012-.016.004-.017-.017-.427c-.002-.01-.009-.017-.016-.018Zm.264-.113-.014.002-.184.093-.01.01-.003.011.018.43.005.012.008.008.201.092c.012.004.023 0 .029-.008l.004-.014-.034-.614c-.003-.012-.01-.02-.02-.022Zm-.715.002a.023.023 0 0 0-.027.006l-.006.014-.034.614c0 .012.007.02.017.024l.015-.002.201-.093.01-.008.003-.011.018-.43-.003-.012-.01-.01-.184-.092Z"/><path fill="#09244B" d="M11.553 3.106a1 1 0 0 1 .894 0c.71.354 1.58 1.18 2.267 2.237.42.647.798 1.42 1.033 2.289.723-.448 1.507-.77 2.437-1.08a1 1 0 0 1 1.297.752c.257 1.285.412 2.558.191 3.807a6.143 6.143 0 0 1-.833 2.184 7.517 7.517 0 0 1 1.716.873 1 1 0 0 1 .374 1.203c-.29.724-1.022 1.504-2.37 2.155-1.215.587-2.99 1.099-5.563 1.383.003.03.004.06.004.091v2a1 1 0 1 1-2 0v-2c0-.03.002-.061.004-.091-2.574-.284-4.348-.796-5.564-1.383-1.347-.651-2.079-1.43-2.368-2.155a1 1 0 0 1 .373-1.203 7.516 7.516 0 0 1 1.716-.873c-.431-.7-.699-1.424-.833-2.184-.22-1.25-.065-2.522.192-3.807a1 1 0 0 1 1.296-.753c.93.31 1.715.633 2.437 1.08a8.154 8.154 0 0 1 1.033-2.288c.687-1.057 1.558-1.883 2.267-2.237ZM13 16.895V14a1 1 0 1 0-2 0v2.895c.318.038.65.071 1 .101.35-.03.683-.063 1-.101Z"/></g></svg>
